icons/folder_type_certificate.svg

<svg xmlns="http://www.w3.org/2000/svg" viewBox="0 0 32 32"><path d="M27.9 6h-9.8l-2 4H5v17h25V6Zm.1 4h-7.8l1-2H28Z" style="fill:#574923"/><path d="M23.045 12.658a4.285 4.285 0 0 0-4.269 4.269v3.56h-2.135v9.257h12.813v-9.257H27.32V16.93a4.284 4.284 0 0 0-4.275-4.272Zm0 1.424a2.84 2.84 0 0 1 2.849 2.827v3.581H20.2v-3.56a2.837 2.837 0 0 1 2.822-2.851h.005Z" style="fill:#af9347"/></svg>

<svg xmlns="http://www.w3.org/2000/svg" viewBox="0 0 32 32"><title>folder_type_certificate</title><path d="M27.9,6H18.1l-2,4H5V27H30V6Zm.1,4H20.2l1-2H28Z" style="fill:#574923"/><path d="M23.045,12.658a4.285,4.285,0,0,0-4.269,4.269v3.56H16.641v9.257H29.454V20.487H27.32V16.93A4.284,4.284,0,0,0,23.045,12.658Zm0,1.424a2.84,2.84,0,0,1,2.849,2.827V20.49H20.2V16.93a2.837,2.837,0,0,1,2.822-2.851h.005Z" style="fill:#af9347"/></svg>
